X:140
T:Durham's Reel
C:Traditional - Arr. Tim O'Brien
N:Transcribed By Mike Stangeland 
R:bluegrass
L:1/8
Q:1/4=240
M:4/4
K:A
z6 A,A, |: "A"A,B, CE FE CF | EA FE FE CE | "D"DE FA BA FB | Ad BA BA FD | "E"EF GB cB Gc | 
Be cB ce ef | ge fe cA Bc |1 A"A"B cd c2 c2 :|2 A"A"G AB A2 A2 | "A"E=G Bd cB cd | 
ef =gf eb ag | "D"f=g af gf d2 | ed Bd AF D2 | "B"[^A=F][B^F] [B2F2] [B2F2] E2 | 
D^D [DB,][DB,] [DB,][DB,] [D2A,2] | "E"EF GA BG Bc | dB cd ef gf | "A"ea fe fe cf | 
ec Bc Ad BA | "D"BA FB AF EF | DF EF D4 | "E"EF GA BG Bc | dB cd ed ee | ee ee eA =c^c | 
"A"AC [AC][AC] [AC][AC] C2 | 


